src/svg/history.svg

<svg height="16" width="14" xmlns="http://www.w3.org/2000/svg" viewBox="0 0 14 16">
  <path d="M8 13H6V6h5v2H8v5zM7 1c-2.19 0-4.13 1.02-5.41 2.59L0 2v4h4l-1.5-1.5c1.05-1.33 2.67-2.2 4.5-2.2 3.14 0 5.7 2.56 5.7 5.7S10.14 13.7 7 13.7 1.3 11.14 1.3 8c0-0.34 0.03-0.67 0.09-1H0.08c-0.05 0.33-0.08 0.66-0.08 1 0 3.86 3.14 7 7 7s7-3.14 7-7S10.86 1 7 1z" />
</svg>

<?xml version="1.0" encoding="UTF-8" standalone="no"?>
<svg width="14px" height="16px" viewBox="0 0 14 16" version="1.1" xmlns="http://www.w3.org/2000/svg" xmlns:xlink="http://www.w3.org/1999/xlink">
    <!-- Generator: Sketch 3.7.1 (28215) - http://www.bohemiancoding.com/sketch -->
    <title>history</title>
    <desc>Created with Sketch.</desc>
    <defs></defs>
    <g id="Octicons" stroke="none" stroke-width="1" fill="none" fill-rule="evenodd">
        <g id="history" fill="#000000">
            <path d="M8,13 L6,13 L6,6 L11,6 L11,8 L8,8 L8,13 L8,13 Z M7,1 C4.81,1 2.87,2.02 1.59,3.59 L0,2 L0,6 L4,6 L2.5,4.5 C3.55,3.17 5.17,2.3 7,2.3 C10.14,2.3 12.7,4.86 12.7,8 C12.7,11.14 10.14,13.7 7,13.7 C3.86,13.7 1.3,11.14 1.3,8 C1.3,7.66 1.33,7.33 1.39,7 L0.08,7 C0.03,7.33 0,7.66 0,8 C0,11.86 3.14,15 7,15 C10.86,15 14,11.86 14,8 C14,4.14 10.86,1 7,1 L7,1 Z" id="Shape"></path>
        </g>
    </g>
</svg>
